X: 302
T: MY HEART IS YOUR SLAVE
T: Is do dhrugaire mo chroidhe
B: O'Neill's 302
M: 3/4
L: 1/8
Z: 1999 by John Chambers <jc@trillian.mit.edu>
N: "Moderate"
N: "Collected by J.O'Neill"
K:G
(.g.f.e) \
| (d2 B)G (BA) | (A2 B)d (ed) | (B2 G)B AG | G3 (g/f/) fe |
| d2 BG BA | A2 (Bd) cd | B2 GB A>G | G3 ||
|| (G/A/) .B.c \
| d2 (fe) (ed) | Hd2 (GB/d/) ef | (g>f g)b ag | g2 Hf a/g/ fe |
| ^cd/=c/ BG BA | A3 B cd | B2 GB A>G | G3 ||


